tools/download-figma-icons/icons/outlined-large/coin.svg

<svg width="64" height="64" viewBox="0 0 64 64" fill="none" xmlns="http://www.w3.org/2000/svg">
<path fill-rule="evenodd" clip-rule="evenodd" d="M3 32C3 47.99 16.01 61 32 61C47.99 61 61 47.99 61 32C61 16.01 47.99 3 32 3C16.01 3 3 16.01 3 32ZM0 32C0 14.355 14.355 0 32 0C49.645 0 64 14.355 64 32C64 49.645 49.645 64 32 64C14.355 64 0 49.645 0 32ZM39.2084 24.18C38.7164 24.847 37.7794 24.989 37.1104 24.498C33.9314 22.158 29.6474 22.616 26.9244 25.587C26.2614 26.31 25.7424 27.129 25.3504 28H31.5004C32.3284 28 33.0004 28.672 33.0004 29.5C33.0004 30.328 32.3284 31 31.5004 31H24.5494C24.4824 31.665 24.4824 32.335 24.5494 33H31.5004C32.3284 33 33.0004 33.672 33.0004 34.5C33.0004 35.328 32.3284 36 31.5004 36H25.3514C25.7434 36.87 26.2624 37.687 26.9244 38.41C29.0834 40.765 32.2164 41.597 35.1044 40.572C35.7814 40.333 36.4554 39.967 37.1094 39.484C37.7744 38.994 38.7144 39.134 39.2074 39.801C39.6994 40.467 39.5574 41.406 38.8904 41.898C37.9984 42.557 37.0614 43.062 36.1054 43.4C34.9514 43.81 33.7694 44.009 32.6014 44.009C29.6824 44.009 26.8464 42.765 24.7144 40.437C23.5274 39.144 22.6834 37.62 22.1574 36H19.5004C18.6724 36 18.0004 35.328 18.0004 34.5C18.0004 33.672 18.6724 33 19.5004 33H21.5584C21.5074 32.334 21.5074 31.666 21.5584 31H19.5004C18.6724 31 18.0004 30.328 18.0004 29.5C18.0004 28.672 18.6724 28 19.5004 28H22.1564C22.6824 26.379 23.5274 24.854 24.7144 23.56C28.4924 19.438 34.4534 18.814 38.8894 22.082C39.5564 22.573 39.6994 23.513 39.2084 24.18ZM39.8936 50.1279C36.0246 51.8399 31.7626 52.3759 27.9066 51.6439C23.8986 50.8819 20.2196 49.0279 17.5466 46.4259C16.9536 45.8479 16.0036 45.8609 15.4256 46.4529C14.8476 47.0469 14.8606 47.9969 15.4536 48.5739C18.5876 51.6269 22.7006 53.7079 27.3456 54.5909C28.6546 54.8399 30.0006 54.9629 31.3616 54.9629C34.6306 54.9629 37.9856 54.2529 41.1066 52.8719C41.8646 52.5369 42.2066 51.6499 41.8726 50.8939C41.5376 50.1369 40.6536 49.7939 39.8936 50.1279ZM44.4395 47.4395L45.4395 46.4395C46.0255 45.8535 46.9745 45.8535 47.5605 46.4395C48.1465 47.0255 48.1465 47.9745 47.5605 48.5605L46.5605 49.5605C46.2675 49.8535 45.8835 50.0005 45.5005 50.0005C45.1165 50.0005 44.7325 49.8535 44.4395 49.5605C43.8535 48.9745 43.8535 48.0255 44.4395 47.4395ZM36.6543 9.4092C32.2013 8.5622 27.3123 9.1732 22.8933 11.1282C22.1353 11.4632 21.7933 12.3492 22.1283 13.1062C22.4633 13.8632 23.3473 14.2072 24.1063 13.8722C27.9753 12.1602 32.2353 11.6232 36.0933 12.3562C40.1013 13.1182 43.7803 14.9712 46.4533 17.5742C46.7453 17.8582 47.1233 18.0002 47.5003 18.0002C47.8903 18.0002 48.2803 17.8482 48.5743 17.5472C49.1523 16.9532 49.1393 16.0032 48.5473 15.4262C45.4123 12.3732 41.3003 10.2922 36.6543 9.4092ZM18.561 17.561C18.268 17.854 17.884 18 17.5 18C17.116 18 16.732 17.854 16.439 17.561C15.854 16.975 15.854 16.025 16.439 15.439L17.439 14.439C18.025 13.854 18.975 13.854 19.561 14.439C20.146 15.025 20.146 15.975 19.561 16.561L18.561 17.561Z" fill="black"/>
</svg>

<svg width="64" height="64" viewBox="0 0 64 64" fill="none" xmlns="http://www.w3.org/2000/svg"><path fill-rule="evenodd" clip-rule="evenodd" d="M3 32c0 15.99 13.01 29 29 29s29-13.01 29-29S47.99 3 32 3 3 16.01 3 32Zm-3 0C0 14.355 14.355 0 32 0s32 14.355 32 32-14.355 32-32 32S0 49.645 0 32Zm39.208-7.82a1.5 1.5 0 0 1-2.098.318c-3.179-2.34-7.463-1.882-10.186 1.089A9.045 9.045 0 0 0 25.35 28h6.15a1.5 1.5 0 0 1 0 3h-6.95a9.975 9.975 0 0 0 0 2h6.95a1.5 1.5 0 0 1 0 3h-6.149c.392.87.911 1.687 1.573 2.41 2.16 2.355 5.292 3.187 8.18 2.162a7.73 7.73 0 0 0 2.005-1.088 1.499 1.499 0 1 1 1.781 2.414 10.719 10.719 0 0 1-2.785 1.502c-1.154.41-2.336.609-3.504.609-2.919 0-5.755-1.244-7.887-3.572-1.187-1.293-2.03-2.817-2.557-4.437H19.5a1.5 1.5 0 0 1 0-3h2.058a13.091 13.091 0 0 1 0-2H19.5a1.5 1.5 0 0 1 0-3h2.656c.526-1.621 1.371-3.146 2.558-4.44 3.778-4.122 9.74-4.746 14.175-1.478.667.491.81 1.431.32 2.098Zm.686 25.948c-3.87 1.712-8.131 2.248-11.987 1.516-4.008-.762-7.687-2.616-10.36-5.218a1.5 1.5 0 1 0-2.093 2.148c3.134 3.053 7.247 5.134 11.892 6.017a21.5 21.5 0 0 0 4.016.372c3.269 0 6.624-.71 9.745-2.091a1.5 1.5 0 0 0-1.213-2.744Zm4.546-2.688 1-1a1.5 1.5 0 1 1 2.12 2.12l-1 1a1.496 1.496 0 0 1-2.12 0 1.5 1.5 0 0 1 0-2.12ZM36.654 9.41c-4.453-.848-9.342-.237-13.76 1.718a1.5 1.5 0 1 0 1.212 2.744c3.87-1.712 8.13-2.249 11.987-1.516 4.008.762 7.687 2.615 10.36 5.218a1.498 1.498 0 0 0 2.121-.027 1.501 1.501 0 0 0-.027-2.12c-3.135-3.054-7.247-5.135-11.893-6.018Zm-18.093 8.15A1.495 1.495 0 0 1 17.5 18a1.502 1.502 0 0 1-1.061-2.561l1-1a1.502 1.502 0 0 1 2.122 0 1.502 1.502 0 0 1 0 2.122l-1 1Z" fill="currentColor"/></svg>
